app/assets/images/country-4x3/mz.svg

<?xml version="1.0" encoding="UTF-8"?>
<svg xmlns="http://www.w3.org/2000/svg" xmlns:xlink="http://www.w3.org/1999/xlink" width="480pt" height="360pt" viewBox="0 0 480 360" version="1.1">
<g id="surface1">
<path style=" stroke:none;fill-rule:evenodd;fill:rgb(0%,60.392157%,0%);fill-opacity:1;" d="M 0 0 L 540 0 L 540 112.5 L 0 112.5 Z M 0 0 "/>
<path style=" stroke:none;fill-rule:evenodd;fill:rgb(100%,100%,100%);fill-opacity:1;" d="M 0 112.472656 L 540 112.472656 L 540 123.734375 L 0 123.734375 Z M 0 112.472656 "/>
<path style=" stroke:none;fill-rule:evenodd;fill:rgb(0%,0%,0%);fill-opacity:1;" d="M 0 123.734375 L 540 123.734375 L 540 236.234375 L 0 236.234375 Z M 0 123.734375 "/>
<path style=" stroke:none;fill-rule:evenodd;fill:rgb(100%,100%,100%);fill-opacity:1;" d="M 0 236.234375 L 540 236.234375 L 540 247.5 L 0 247.5 Z M 0 236.234375 "/>
<path style=" stroke:none;fill-rule:evenodd;fill:rgb(100%,79.215686%,0%);fill-opacity:1;" d="M 0 247.5 L 540 247.5 L 540 360 L 0 360 Z M 0 247.5 "/>
<path style=" stroke:none;fill-rule:evenodd;fill:rgb(100%,0%,0%);fill-opacity:1;" d="M 0 0 L 0 360 L 236.265625 180 Z M 0 0 "/>
<path style=" stroke:none;fill-rule:evenodd;fill:rgb(100%,79.215686%,0%);fill-opacity:1;" d="M 139.59375 234.117188 L 103.574219 207.746094 L 67.597656 234.125 L 81.546875 191.71875 L 45.34375 165.65625 L 89.988281 165.820312 L 103.582031 123.335938 L 117.222656 165.84375 L 161.828125 165.640625 L 125.613281 191.75 Z M 139.59375 234.117188 "/>
<path style="fill-rule:evenodd;fill:rgb(100%,100%,100%);fill-opacity:1;stroke-width:1.25;stroke-linecap:round;stroke-linejoin:round;stroke:rgb(0%,0%,0%);stroke-opacity:1;stroke-miterlimit:4;" d="M 77.114262 167.910449 L 118.942935 167.910449 C 122.312152 171.68901 129.818894 173.225625 136.972969 167.866365 C 150.084577 160.687099 175.451318 167.910449 175.451318 167.910449 L 180.451614 162.60157 L 168.272051 122.643286 L 163.901516 117.95787 C 163.901516 117.95787 154.536981 112.340409 136.739958 114.210796 C 118.942935 116.087482 112.702011 113.587334 112.702011 113.587334 C 112.702011 113.587334 97.090256 115.464019 92.71972 117.649287 C 92.241102 118.033441 87.725722 122.643286 87.725722 122.643286 Z M 77.114262 167.910449 " transform="matrix(0.620276,0,0,0.620276,24.476484,100.392184)"/>
<path style="fill:none;stroke-width:1.25;stroke-linecap:round;stroke-linejoin:round;stroke:rgb(0%,0%,0%);stroke-opacity:1;stroke-miterlimit:4;" d="M 85.540454 157.607572 C 85.540454 157.607572 125.505036 152.613573 137.054838 167.910449 C 130.530523 172.375449 124.78711 172.747007 118.634352 168.225329 C 119.616778 166.59425 132.992885 152.613573 167.025126 157.298989 " transform="matrix(0.620276,0,0,0.620276,24.476484,100.392184)"/>
<path style="fill:none;stroke-width:1.25;stroke-linecap:butt;stroke-linejoin:miter;stroke:rgb(0%,0%,0%);stroke-opacity:1;stroke-miterlimit:4;" d="M 128.307469 117.649287 L 127.998887 161.669525 " transform="matrix(0.620276,0,0,0.620276,24.476484,100.392184)"/>
<path style="fill:none;stroke-width:1.25;stroke-linecap:butt;stroke-linejoin:miter;stroke:rgb(0%,0%,0%);stroke-opacity:1;stroke-miterlimit:4;" d="M 163.901516 118.27275 L 171.395662 153.237036 " transform="matrix(0.620276,0,0,0.620276,24.476484,100.392184)"/>
<path style="fill:none;stroke-width:1.25;stroke-linecap:round;stroke-linejoin:round;stroke:rgb(0%,0%,0%);stroke-opacity:1;stroke-miterlimit:4;" d="M 93.135362 117.718561 L 88.972647 135.754893 " transform="matrix(0.620276,0,0,0.620276,24.476484,100.392184)"/>
<path style="fill-rule:evenodd;fill:rgb(0%,0%,0%);fill-opacity:1;stroke-width:1.25;stroke-linecap:round;stroke-linejoin:round;stroke:rgb(0%,0%,0%);stroke-opacity:1;stroke-miterlimit:4;" d="M 49.94011 172.709221 L 59.783262 184.246428 C 60.935723 184.932867 61.962232 184.888784 62.988741 184.246428 L 77.56769 166.75169 L 83.688959 159.169377 C 84.639897 158.042106 84.942182 156.788884 84.860313 155.66791 L 96.567555 145.264272 C 97.524791 145.333546 98.091575 145.440605 99.04881 145.503581 C 97.921539 145.213891 97.090256 144.659702 97.978218 143.419075 L 100.604318 141.378651 L 102.644741 144.004751 C 102.644741 144.004751 99.728951 147.795908 99.439262 147.795908 L 96.227484 147.795908 L 90.106215 153.337798 L 92.782696 155.699398 L 96.813161 166.75169 L 101.769374 163.250223 L 98.563895 151.876754 L 105.560531 144.294441 L 102.934431 140.213595 L 104.685164 137.877185 C 104.685164 137.877185 128.912039 153.129977 138.238787 149.049131 C 138.490692 149.137297 138.805572 138.173172 138.805572 138.173172 C 138.805572 138.173172 113.72852 135.547072 113.142843 130.590859 C 112.563464 125.634646 118.684733 125.048969 118.684733 125.048969 L 116.058633 121.257813 L 116.64431 119.21739 L 121.014846 124.75928 L 130.933569 116.3016 L 189.255661 182.785385 C 192.43595 181.494376 193.116091 180.719771 193.336507 177.539482 C 193.254638 177.457613 136.179472 111.924767 136.179472 111.924767 L 140.556305 107.258244 C 141.419076 106.288413 141.721361 105.879069 141.721361 104.342454 L 148.428307 98.510875 C 150.44354 99.203611 151.734549 100.41275 152.805141 102.012341 L 171.24452 86.381693 C 171.729435 86.872906 173.203074 87.357822 174.204392 86.80993 L 204.684786 57.544974 L 171.464936 81.016136 L 170.293582 80.14077 C 170.293582 79.164641 171.502721 78.925332 170.293582 77.22498 C 169.002573 75.67577 167.088102 78.679726 166.798413 78.679726 C 166.502425 78.679726 161.987045 77.086433 160.998321 75.058605 L 160.670846 80.430459 L 152.213166 88.302462 L 145.802207 88.012772 L 136.469161 97.049831 L 135.304105 100.551298 L 136.758851 103.467087 C 136.758851 103.467087 131.802638 107.843921 131.802638 107.547934 C 131.802638 107.258244 130.801319 106.263223 130.757236 106.130973 L 135.008118 102.302031 L 135.593795 99.675931 L 134.176834 97.459175 C 133.7423 97.774055 128.301171 103.467087 128.011482 102.88141 C 127.520269 102.346114 112.261179 85.096982 112.261179 85.096982 L 113.136546 81.891503 L 103.22412 71.097413 C 99.609297 69.850488 93.891074 69.642667 92.726018 77.51467 C 91.812865 79.366165 84.268338 77.804359 84.268338 77.804359 L 80.181195 78.679726 L 57.144566 111.33909 L 69.979079 126.799703 L 96.221187 93.554662 L 97.00209 84.133449 L 102.506194 90.292504 C 104.345093 90.531813 106.095827 90.550706 107.758394 89.713125 L 123.307173 107.069316 L 120.718859 109.594654 C 121.594225 110.564485 122.192498 111.187947 123.067864 112.157778 C 123.943231 111.572101 124.780812 110.873067 125.656179 110.28739 C 125.945868 110.677842 126.430784 111.420959 126.726771 111.81141 C 125.423167 112.516742 124.510015 113.461382 123.206411 114.173011 C 121.121905 112.812729 119.106673 111.118674 119.257815 108.4233 L 110.510446 115.715923 L 110.220756 117.176967 L 84.268338 138.752551 L 81.931928 139.042241 L 81.352549 145.749187 L 98.26161 131.755916 L 98.26161 129.715493 L 100.012343 131.170239 L 113.136546 120.672136 C 113.136546 120.672136 114.011913 121.837192 113.722223 121.837192 C 113.426236 121.837192 102.052766 132.335295 102.052766 132.335295 L 101.763077 133.506649 L 99.722654 135.257382 L 98.557597 134.382016 L 82.807295 148.375287 L 80.477182 148.375287 L 71.729813 157.122656 C 69.468974 157.32418 67.516717 157.557191 65.602246 158.87339 L 49.933812 172.709221 Z M 49.94011 172.709221 " transform="matrix(0.620276,0,0,0.620276,24.476484,100.392184)"/>
</g>
</svg>

<?xml version="1.0" encoding="UTF-8" standalone="no"?>
<!-- Created with Sodipodi ("http://www.sodipodi.com/") -->
<svg id="svg912" xmlns:rdf="http://www.w3.org/1999/02/22-rdf-syntax-ns#" xmlns="http://www.w3.org/2000/svg" height="480" width="640" version="1.1" xmlns:cc="http://creativecommons.org/ns#" xmlns:dc="http://purl.org/dc/elements/1.1/">
 <metadata id="metadata4218">
  <rdf:RDF>
   <cc:Work rdf:about="">
    <dc:format>image/svg+xml</dc:format>
    <dc:type rdf:resource="http://purl.org/dc/dcmitype/StillImage"/>
   </cc:Work>
  </rdf:RDF>
 </metadata>
 <defs id="defs914">
  <clipPath id="clipPath4584" clipPathUnits="userSpaceOnUse">
   <rect id="rect4586" fill-opacity="0.67" height="512" width="682.67" y=".0000049640" x="0"/>
  </clipPath>
 </defs>
 <g id="flag" clip-path="url(#clipPath4584)" transform="matrix(.93750 0 0 .93750 0 -.0000046537)">
  <rect id="rect937" fill-rule="evenodd" height="160" width="768" y=".000052248" x="0" stroke-width="1pt" fill="#009a00"/>
  <rect id="rect935" fill-rule="evenodd" height="16.018" width="768" y="159.96" x="0" stroke-width="1pt" fill="#fff"/>
  <rect id="rect934" fill-rule="evenodd" height="160" width="768" y="175.98" x="0" stroke-width="1pt"/>
  <rect id="rect933" fill-rule="evenodd" height="16.018" width="768" y="335.98" x="0" stroke-width="1pt" fill="#fff"/>
  <rect id="rect931" fill-rule="evenodd" height="160" width="768" y="352" x="0" stroke-width="1pt" fill="#ffca00"/>
  <path id="path932" d="m0 0.0000044666v512l336.02-256-336.02-256z" fill-rule="evenodd" stroke-width="1pt" fill="#f00"/>
  <g id="g938" transform="matrix(.88217 0 0 .88217 34.811 142.78)">
   <polygon id="polygon916" fill="#ffca00" fill-rule="evenodd" transform="matrix(.96989 .020185 -.020185 .96989 6.077 3.6535)" d="m 189.54603,214.56867 -60.76034,-42.57244 -58.855159,45.07437 21.71282,-70.94213 -61.055514,-42.04584 74.179603,-1.2722 21.12078,-71.060124 24.13269,70.155864 74.10887,-1.87174 -59.26477,44.63092 z" stroke-width="1pt" points="189.55 214.57 128.79 172 69.93 217.07 91.643 146.13 30.588 104.08 104.77 102.81 125.89 31.75 150.02 101.91 224.13 100.03 164.86 144.66"/>
   <path id="path919" stroke-linejoin="round" d="m77.112 167.91h41.834c3.366 3.776 10.876 5.316 18.029-0.045 13.112-7.18 38.479 0.045 38.479 0.045l4.995-5.307-12.176-39.961-4.371-4.683s-9.365-5.619-27.161-3.746c-17.795 1.873-24.039-0.624-24.039-0.624s-15.609 1.873-19.98 4.058c-0.4805 0.389-4.9951 4.995-4.9951 4.995l-10.615 45.268z" fill-rule="evenodd" stroke="#000" stroke-linecap="round" stroke-width="1.25" fill="#fff"/>
   <path id="path918" stroke-linejoin="round" d="m85.542 157.61s39.96-4.995 51.512 10.302c-6.524 4.464-12.268 4.832-18.42 0.313 0.98-1.633 14.361-15.61 48.39-10.927" stroke="#000" stroke-linecap="round" stroke-width="1.25" fill="none"/>
   <path id="path920" d="m128.31 117.65-0.31 44.02" stroke="#000" stroke-width="1pt" fill="none"/>
   <path id="path921" d="m163.9 118.27 7.493 34.966" stroke="#000" stroke-width="1pt" fill="none"/>
   <path id="path922" stroke-linejoin="round" d="m93.134 117.72-4.1583 18.032" stroke="#000" stroke-linecap="round" stroke-width="1.25" fill="none"/>
   <path id="path917" stroke-linejoin="round" d="m49.942 172.71 9.8382 11.535c1.1553 0.689 2.1815 0.645 3.2077 0l14.58-17.496 6.1238-7.582c0.9482-1.123 1.2509-2.376 1.1664-3.499l11.707-10.403c0.9577 0.066 1.5281 0.174 2.4858 0.239-1.1315-0.293-1.9617-0.844-1.0708-2.084l2.6243-2.041 2.041 2.624s-2.9156 3.791-3.2072 3.791h-3.2077l-6.1238 5.541 2.677 2.366 4.03 11.048 4.9577-3.5-3.2081-11.372 6.9991-7.582-2.625-4.083 1.75-2.333s24.222 15.25 33.554 11.168c0.252 0.091 0.564-10.876 0.564-10.876s-25.078-2.624-25.662-7.582c-0.583-4.957 5.541-5.54 5.541-5.54l-2.625-3.791 0.584-2.042 4.374 5.541 9.915-8.457 58.321 66.487c3.184-1.291 3.864-2.07 4.083-5.249-0.082-0.08-57.155-65.612-57.155-65.612l4.374-4.665c0.862-0.972 1.165-1.385 1.166-2.917l6.707-5.8318c2.017 0.6929 3.303 1.9018 4.374 3.4988l18.439-15.627c0.486 0.486 1.962 0.972 2.964 0.4254l30.48-29.264-33.22 23.468-1.17-0.875c0-0.9721 1.205-1.2125 0-2.9161-1.291-1.5491-3.208 1.4581-3.499 1.4581-0.292 0-4.809-1.5964-5.799-3.6188l-0.325 5.3684-8.457 7.8735-6.415-0.2916-9.332 9.0398-1.166 3.4989 1.458 2.917s-4.958 4.374-4.958 4.082c0-0.291-1.002-1.289-1.045-1.418l4.253-3.831 0.583-2.6243-1.419-2.2158c-0.43 0.3125-5.871 6.0071-6.163 5.4231-0.49-0.54-15.75-17.786-15.75-17.786l0.874-3.2077-9.914-10.79c-3.6145-1.2479-9.3318-1.458-10.498 6.4154-0.9083 1.8493-8.4567 0.2916-8.4567 0.2916l-4.0825 0.8749-23.037 32.66 12.831 15.455 26.245-33.243 0.7791-9.4176 5.5068 6.1573c1.836 0.2359 3.585 0.2566 5.249-0.5832l15.549 17.356-2.589 2.526c0.875 0.972 1.477 1.593 2.352 2.565 0.875-0.583 1.71-1.283 2.585-1.867 0.292 0.39 0.778 1.129 1.07 1.518-1.303 0.709-2.217 1.653-3.52 2.362-2.085-1.359-4.098-3.051-3.945-5.744l-8.748 7.29-0.292 1.458-25.953 21.579-2.3329 0.292-0.5832 6.707 16.913-13.997v-2.042l1.7497 1.458 13.122-10.497s0.875 1.166 0.584 1.166c-0.292 0-11.665 10.498-11.665 10.498l-0.291 1.166-2.0416 1.75-1.1665-0.875-15.747 13.997h-2.3328l-8.7483 8.749c-2.2564 0.196-4.2116 0.435-6.1238 1.749l-15.67 13.835z" fill-rule="evenodd" stroke="#000" stroke-linecap="round" stroke-width="1.25"/>
  </g>
 </g>
</svg>
